X: 1
T: Liza Jane (R-99)
I: Liza Jane	R-99	A	reel
M: C|
R: reel
K: A
%%text Fiddles shuffle in.  A, C#, and E are good notes to shuffle.  Anything else is not good.
ef| "A"a2f2 e2ce| fecB A4| a2f2 e2c2| "D"f4 f2ef|"A"a2f2 e2ce| fecB A2AB| "D"cBAF "E"E2F2| "A"A6 :|
|:BA| "A"c4 c3A| B2(A2 A)ABA| c2B2 A2E2| "D"(F6 F)E|"D"F2A2 "E"B3A| BAcA B2AB| "D"cBAF "E"E2F2| "A"A6 :|

$NormLMargin
$NormRMargin
%%rightmargin   4cm
